style-guide/assets/wds-icons-flag.svg

<svg viewBox="0 0 24 24" xmlns="http://www.w3.org/2000/svg">
  <path d="M3 16h16.586l-5.293-5.293a.999.999 0 0 1 0-1.414L19.586 4H3v12zm-1 8a1 1 0 0 1-1-1V1a1 1 0 0 1 2 0v1h19a1.002 1.002 0 0 1 .707 1.707L16.414 10l6.293 6.293A1 1 0 0 1 22 18H3v5a1 1 0 0 1-1 1z"/>
</svg>

<svg xmlns="http://www.w3.org/2000/svg" xmlns:xlink="http://www.w3.org/1999/xlink" width="24" height="24" viewBox="0 0 24 24">
  <defs>
    <path id="flag-a" d="M3,16 L19.586,16 L14.293,10.707 C13.902,10.316 13.902,9.684 14.293,9.293 L19.586,4 L3,4 L3,16 Z M2,24 C1.448,24 1,23.552 1,23 L1,1 C1,0.448 1.448,0 2,0 C2.552,0 3,0.448 3,1 L3,2 L22,2 C22.404,2 22.769,2.244 22.924,2.617 C23.079,2.991 22.993,3.421 22.707,3.707 L16.414,10 L22.707,16.293 C22.993,16.579 23.079,17.009 22.924,17.383 C22.769,17.756 22.404,18 22,18 L3,18 L3,23 C3,23.552 2.552,24 2,24 Z"/>
  </defs>
  <use fill-rule="evenodd" xlink:href="#flag-a"/>
</svg>
